X:7175
T:Honeymoon Reel, The
N:IrTrad, 6/99
M:4/4
S:Charlie Harris, Willie Clancy Summer School 1998
R:reel
L:1/8
K:G
dc|:BG G2 DG G2|Bded gedc|BG G2 DG G2|BedB A2 dc|
BG G2 DG G2|Bdef g3 a|bgaf gfed|1 (3efg dB A2 dc:|2 (3efg dB A2 Bd|
|:(3ege dg edBA|(3Bcd ef gedc|BG G2 DG G2|BedB A2 Bd|
(3ege dg edBA|(3Bcd ef g3 a|bgaf gfed|1 egdB A2 Bd:|2 egdB A4||
